X:108
T: WENN DER SCHNEE VON DER ALMA WEGGAGEHT
N: F0226
O: Europa, Mitteleuropa, Oesterreich, Tirol
R: Jahreszeiten - Lied, Fruehling
M: 3/4
L: 1/16
K: A
E3F | E2A2A2A2A2A2 | d3dG4
E3F | E2G2G2G2F2E2 | c2c2A4
(3E2F2G2 | A3Ac2B2A2G2 | F3Fd2c2B2A2 |
G3ee2e2d3B | A8
(3E2F2G2 | A4C2E2A2c2 | d2zcd2zcB4 |
d2zcd2zcB4 | c2zBc2zBA4 |
E4C2E2A2c2 | d2zcd2zcB2z
A | G2B2d2f2e2zG | A4a2z2

@@@ Tune index: 5539
